!!!!SEGMENT: pl-kk--kk-i-7--007_anonim--sanctus.krn
!!!cenid: 16xx:797
!!!COM: Anonim
!!!COM-rismID: pe30004985
!!!CDT:
!!!CNT:
!!!OTL: Sanctus
!!!PDT:
!!!AGN: Sacred
!!!YEC: Copyright 2022 Narodowy Instytut Fryderyka Chopina (https://polishscores.org)
!!!YEM: License CC-BY-4.0 (https://creativecommons.org/licenses/by/4.0)
!!!SMS-siglum: PL-Kk
!!!SMS-shelfmark: Kk.I.7
!!!SMS-shelfwork: 007 W
!!!SMS-variant:
!!!SMS-altvar:
!!!NIFC-rismSourceID: 300258077
!!!NIFC-rismChildID: 300258084
!!!NIFC-islandoraID: pl-kk:1956
!!!URL-pdf-islandora: https://repozytorium.nifc.pl/islandora/object/pl-kk%3A1956/datastream/PDF/view
!!!URL-scan: https://polish.musicsources.pl/pl/lokalizacje/galeria/rekopisy/6140 @EN{Scan on Polish Music Sources Website} @PL{Skany w portalu Dziedzictwo Muzyki Polskiej w otwartym dostępie}
!!!IIIF: https://repozytorium.nifc.pl/islandora/object/pl-kk%3A1956/datastream/IIIF/view
!!!ONB-nifc: UWAGA: C (skan 0007, s.8-9), A (0094, s.8-9), T(0171, s.7), B(0259, s.8-9). Następny utwór: Benedictus
!!!AIN: 1 alto 1 bass 1 soprn 1 tenor
!!!key:
**kern	**text	**kern	**text	**kern	**text	**kern	**text
*part4	*	*part3	*	*part2	*	*part1	*
*staff4	*	*staff3	*	*staff2	*	*staff1	*
*Ibass	*	*Itenor	*	*Ialto	*	*Isoprn	*
*I"[BASSVS.]	*	*I"[TENOR.]	*	*I"[ALTVS.]	*	*I"[CANTVS.]	*
*I'B	*	*I'T	*	*I'A	*	*I'S	*
*clefF4	*	*clefC4	*	*clefC4	*	*clefC3	*
*k[b-]	*	*k[b-]	*	*k[b-]	*	*k[b-]	*
*F:	*	*F:	*	*F:	*	*F:	*
*M2/1	*	*M2/1	*	*M2/1	*	*M2/1	*
*met(c|)	*	*met(c|)	*	*met(c|)	*	*met(c|)	*
=1-	=1-	=1-	=1-	=1-	=1-	=1-	=1-
*xywh-#259:2634,3507,4407,1022	*	*xywh-#171:7210,1771,6022,876	*	*xywh-#94:955,2403,6100,936	*	*xywh-#7:3038,1930,3846,833	*
*all\right	*	*all\right	*	*all\right	*	*all\right	*
*	*	*lig	*	*	*	*	*
!	!	!	!	!LO:TX:t=P:problem=2\right&colon; global	!	!	!
*	*	*	*	*lig	*	*	*
!	!	!	!	!	!	!LO:TX:t=P:problem=kreska pseudotaktowa	!
1F	San-	1c	San-	1A	San-	0f	San-
!	!	!	!	!LO:TX:t=P:problem=kreska pseudotaktowa	!	!	!
2D/	.	1d	.	1B-	.	.	.
!LO:TX:t=P:problem=kreska pseudotaktowa	!	!	!	!	!	!	!
2BB-/	.	.	.	.	.	.	.
*	*	*Xlig	*	*Xlig	*	*	*
=2-	=2-	=2-	=2-	=2-	=2-	=2-	=2-
*	*	*lig	*	*	*	*lig	*
1C	.	1c	.	2G/	-ctus	1e	.
.	.	.	.	1c	.	.	.
2FF/	-ct(us)	1A	.	.	.	1.f	.
*2\right	*ij	*	*	*	*	*	*
!LO:TX:t=P:problem=kreska pseudotaktowa	!	!	!	!	!	!	!
2F\	San-	.	.	1A\	.	.	.
*	*	*Xlig	*	*	*	*Xlig	*
=3-	=3-	=3-	=3-	=3-	=3-	=3-	=3-
*	*	*lig	*	*	*	*	*
2D/	.	1F	.	.	.	.	.
2BB-/	.	.	.	1B-	San-	1d	-ctus
4GG/	.	1G	.	.	.	.	.
4AA/	.	.	.	.	.	.	.
*	*	*	*	*2\right	*	*	*
4BB-/	.	.	.	2B-\	.	1g\	.
!LO:TX:t=P:problem=kreska pseudotaktowa	!	!	!	!	!	!	!
4GG/	.	.	.	.	.	.	.
!	!	!	!	!LO:TX:t=P:problem=kreska pseudotaktowa	!	!	!
*	*	*Xlig	*	*	*	*	*
=4-	=4-	=4-	=4-	=4-	=4-	=4-	=4-
4D\	.	1A	.	2d\	.	.	.
4E\	.	.	.	.	.	.	.
*	*	*	*	*	*	*2\right	*
!	!	!	!	!	!	!LO:TX:t=P:problem=kreska pseudotaktowa	!
2F\	.	.	.	1c	.	2f\	San-
2C/	.	0G	.	.	.	4e\	.
.	.	.	.	.	.	4c\	.
2BB-/	.	.	.	2d\	.	1f\	.
=5-	=5-	=5-	=5-	=5-	=5-	=5-	=5-
!LO:TX:t=P:problem=kreska pseudotaktowa	!	!	!	!	!	!	!
1C	.	.	.	1c	.	.	.
!	!	!	!	!	!	!LO:TX:t=P:problem=kreska pseudotaktowa	!
.	.	.	.	.	.	2e\	.
*	*	*	*	*	*	*custos:B	*
!LO:N:vis=0	!	!	!	!	!	!	!
1FF	-ct(us)	1A;<	-ctus.	1c;<	-ctus	1f;<	-tus.
*	*Xij	*	*	*	*	*	*
!LO:PB:g=original	!	!	!	!	!	!LO:LB:g=original	!
=6||	=6||	=6||	=6||	=6||	=6||	=6||	=6||
*xywh-#259:7083,391,6405,1010	*	*	*	*	*	*xywh-#7:737,2509,6232,912	*
*M2/1	*	*M2/1	*	*	*	*M2/1	*
*met(c|)	*	*met(c|)	*	*	*	*met(c|)	*
*lig	*	*	*	*lig	*	*	*
1BB-	San-	0r	.	1d	San-	4B-/	San-
.	.	.	.	.	.	4c/	.
.	.	.	.	.	.	4d\	.
!	!	!	!	!	!	!LO:TX:t=P:problem=kreska pseudotaktowa	!
.	.	.	.	.	.	4e\	.
!LO:TX:t=P:problem=kreska pseudotaktowa	!	!	!	!	!	!	!
1AA	.	.	.	1c	.	4f\	.
.	.	.	.	.	.	4c/	.
.	.	.	.	.	.	1f\	.
*Xlig	*	*	*	*Xlig	*	*	*
=7-	=7-	=7-	=7-	=7-	=7-	=7-	=7-
*	*	*lig	*	*	*	*	*
4GG/	.	1B-	San-	2B-\	.	.	.
4AA/	.	.	.	.	.	.	.
!	!	!	!	!LO:TX:t=P:problem=kreska pseudotaktowa	!	!LO:TX:t=P:problem=kreska pseudotaktowa	!
4BB-/	.	.	.	2G/	.	2e\	.
4C/	.	.	.	.	.	.	.
4D/	.	1A	.	4F/	.	1f	-ctus
4E/	.	.	.	4G/	.	.	.
1F\	.	.	.	4A/	.	.	.
.	.	.	.	4B-\	.	.	.
*	*	*Xlig	*	*	*	*	*
=8-	=8-	=8-	=8-	=8-	=8-	=8-	=8-
*	*	*lig	*	*	*	*	*ij
!	!	!	!	!	!	!LO:TX:t=P:problem=kreska pseudotaktowa	!
.	.	1G	.	4c\	.	1c	San-
.	.	.	.	4G/	.	.	.
!LO:TX:t=P:problem=kreska pseudotaktowa	!	!	!	!LO:TX:t=P:problem=kreska pseudotaktowa	!	!	!
2E\	.	.	.	2c\	.	.	.
2D/	.	1A	.	2F/	.	2d\	.
2AA/	.	.	.	1f\	.	2c/	.
*	*	*Xlig	*	*	*	*	*
=9-	=9-	=9-	=9-	=9-	=9-	=9-	=9-
2BB-/	.	1G	.	.	.	2d\	.
2C/	.	.	.	2e\	.	2c/	.
!	!	!LO:N:vis=0	!	!	!	!LO:TX:t=P:problem=kreska pseudotaktowa	!
1FF;	-ctus	1A;	-ctus.	1f;<	-ctus	1c;	-ctus
*	*	*	*	*	*	*	*Xij
=10||	=10||	=10||	=10||	=10||	=10||	=10||	=10||
*M2/1	*	*M2/1	*	*	*	*M2/1	*
*met(c|)	*	*met(c|)	*	*	*	*met(c|)	*
*	*	*lig	*	*	*	*	*
!	!	!	!	!LO:TX:t=P:problem=kreska pseudotaktowa	!	!	!
2.F\	San-	1F	San-	1r	.	2.a\	San-
!LO:TX:t=P:problem=kreska pseudotaktowa	!	!	!	!	!	!LO:TX:t=P:problem=kreska pseudotaktowa	!
4E\	.	.	.	.	.	4g\	.
*	*	*	*	*custos:G	*	*	*
4D/	.	1A	.	1F	San-	4f\	.
4C/	.	.	.	.	.	4e\	.
!LO:TX:t=P:problem=kreska pseudotaktowa	!	!	!	!	!	!LO:TX:t=P:problem=kreska pseudotaktowa	!
2D/	.	.	.	.	.	2f\	.
*	*	*Xlig	*	*	*	*	*
!	!	!	!	!LO:LB:g=original	!	!	!
=11-	=11-	=11-	=11-	=11-	=11-	=11-	=11-
*	*	*	*	*xywh-#94:1099,3080,6015,869	*	*	*
*	*	*lig	*	*	*	*lig	*
4C/	.	1c	.	2G/	.	1e	.
4D/	.	.	.	.	.	.	.
4E/	.	.	.	1c	.	.	.
4C/	.	.	.	.	.	.	.
2.G\	.	1d	.	.	.	1.g	.
.	.	.	.	1B-\	.	.	.
!LO:TX:t=P:problem=kreska pseudotaktowa	!	!	!	!	!	!	!
4F\	.	.	.	.	.	.	.
*	*	*Xlig	*	*	*	*Xlig	*
=12-	=12-	=12-	=12-	=12-	=12-	=12-	=12-
*	*	*custos:f	*	*	*	*	*
2E\	.	1c	.	.	.	.	.
!	!	!	!	!	!	!LO:TX:t=P:problem=kreska pseudotaktowa	!
2F\	.	.	.	4A/	.	2.f\	.
!	!	!	!	!LO:TX:t=P:problem=kreska pseudotaktowa	!	!	!
.	.	.	.	4G/	.	.	.
*	*	*xywh-#171:7311,2397,5391,826	*	*	*	*	*
!	!	!LO:LB:g=original	!	!	!	!	!
4D\	.	1f	.	2A/	-ctus	.	.
4E\	.	.	.	.	.	4g\	.
4F\	.	.	.	1d\	San-	1a\	.
*custos:A	*	*	*	*	*	*	*
4G\	.	.	.	.	.	.	.
!LO:LB:g=original	!	!	!	!	!	!	!
=13-	=13-	=13-	=13-	=13-	=13-	=13-	=13-
*xywh-#259:7203,1049,6094,974	*	*	*	*	*	*	*
*	*	*lig	*	*	*	*	*
4A\	.	1e	.	.	.	.	.
4B-\	.	.	.	.	.	.	.
!LO:TX:t=P:problem=kreska pseudotaktowa	!	!	!	!	!	!LO:TX:t=P:problem=kreska pseudotaktowa	!
2c\	.	.	.	1c	.	2g\	.
2F\	.	1d	.	.	.	2a\	.
*	*	*	*	*	*	*custos:c	*
!LO:TX:t=P:problem=kreska pseudotaktowa	!	!	!	!	!	!	!
2G\	.	.	.	1B-\	.	1g\	.
*	*	*Xlig	*	*	*	*	*
=14-	=14-	=14-	=14-	=14-	=14-	=14-	=14-
*	*	*lig	*	*	*	*	*
2E\	.	1c	.	.	.	.	.
*	*	*	*	*	*	*xywh-#7:943,3197,5782,852	*
!	!	!	!	!	!	!LO:LB:g=original	!
4F\	.	.	.	4A/	.	1c	.
!LO:TX:t=P:problem=kreska pseudotaktowa	!	!	!	!LO:TX:t=P:problem=kreska pseudotaktowa	!	!	!
4E\	.	.	.	4G/	.	.	.
4D/	.	1d	.	4F/	.	.	.
4C/	.	.	.	4E/	.	.	.
!	!	!	!	!	!	!LO:N:acc=#	!
!	!	!	!	!	!	!LO:TX:t=P:problem=# above	!
!LO:TX:t=P:problem=kreska pseudotaktowa	!	!	!	!	!	!LO:TX:t=P:problem=kreska pseudotaktowa	!
2D/	.	.	.	2F/	.	2Bn/	.
*	*	*Xlig	*	*	*	*	*
=15-	=15-	=15-	=15-	=15-	=15-	=15-	=15-
*	*	*lig	*	*	*	*	*
2C/	.	1e	.	2G/	.	1c	.
!	!	!	!	!LO:TX:t=P:problem=kreska pseudotaktowa	!	!	!
2AA/	.	.	.	2A/	.	.	.
*lig	*	*	*	*lig	*	*	*
1BB-	.	1c	.	1F	.	2B-y/	-ctus
.	.	.	.	.	.	2.f\	Do-
*	*	*Xlig	*	*	*	*	*
=16-	=16-	=16-	=16-	=16-	=16-	=16-	=16-
1GG	.	1B-	.	1G	.	.	.
.	.	.	.	.	.	4f\	-mi-
!	!	!	!	!	!	!LO:TX:t=P:problem=kreska pseudotaktowa	!
.	.	.	.	.	.	2e\	-n(us)
*Xlig	*	*	*	*Xlig	*	*	*
!	!	!LO:TX:t=P:problem=cezura na 3. linii	!	!	!	!	!
!	!	!LO:TX:t=P:problem=kreska pseudotaktowa	!	!LO:TX:t=P:problem=cezura na 3. linii	!	!	!
2FF/	-ctus,	1c,	-ctus	2A,/	-ctus	1f	De-
!LO:TX:t=P:problem=kreska pseudotaktowa	!	!	!	!	!	!	!
2F\	San-	.	.	1A/	Do-	.	.
=17-	=17-	=17-	=17-	=17-	=17-	=17-	=17-
!	!	!	!	!	!	!LO:TX:t=P:problem=kreska pseudotaktowa	!
2D\	.	1f	Do-	.	.	1f	-(us)
!	!	!	!	!LO:TX:t=P:problem=kreska pseudotaktowa	!	!	!
2F\	.	.	.	2A/	-mi-	.	.
2G\	.	1d	.	2B-\	-nus	0r	.
1B-\	.	.	.	1d\	De-	.	.
=18-	=18-	=18-	=18-	=18-	=18-	=18-	=18-
!	!	!LO:TX:t=P:problem=kreska pseudotaktowa	!	!	!	!	!
.	.	1f	-mi-	.	.	.	.
4A\	.	.	.	1c	-(us)	.	.
!LO:TX:t=P:problem=kreska pseudotaktowa	!	!	!	!	!	!	!
4B-\	.	.	.	.	.	.	.
*	*	*lig	*	*	*	*	*
4c\	.	1e	-nus	.	.	2g\	De-
4B-\	.	.	.	.	.	.	.
4A\	.	.	.	4c\	.	1a\	.
!LO:TX:t=P:problem=kreska pseudotaktowa	!	!	!	!LO:TX:t=P:problem=kreska pseudotaktowa	!	!	!
4G\	.	.	.	4B-\	.	.	.
=19-	=19-	=19-	=19-	=19-	=19-	=19-	=19-
2F\	.	1f	.	2A\	Sab-	.	.
*	*	*	*	*lig	*	*	*
2D/	.	.	.	1d	.	4f\	.
!	!	!	!	!	!	!LO:TX:t=P:problem=kreska pseudotaktowa	!
.	.	.	.	.	.	4g\	.
*	*	*Xlig	*	*	*	*lig	*
2A\	.	1e	De-	.	.	1a	.
!LO:TX:t=P:problem=kreska pseudotaktowa	!	!	!	!	!	!	!
2AA/	.	.	.	1c\	.	.	.
*	*	*	*	*Xlig	*	*	*
=20-	=20-	=20-	=20-	=20-	=20-	=20-	=20-
*	*	*lig	*	*	*	*	*
!	!	!	!	!	!	!LO:SIC:v:s=1.f	!
4BB-/	.	1d	.	.	.	1.e	.
4C/	.	.	.	.	.	.	.
!	!	!	!	!LO:TX:t=P:problem=kreska pseudotaktowa	!	!	!
4D/	.	.	.	2B-\	.	.	.
*custos:F	*	*	*	*	*	*	*
!LO:TX:t=P:problem=kreska pseudotaktowa	!	!	!	!	!	!	!
4E\	.	.	.	.	.	.	.
*xywh-#259:7209,1707,4264,909	*	*	*	*	*	*	*
!LO:LB:g=original	!	!	!	!	!	!	!
4F\	.	1c	.	4A\	.	.	.
4G\	.	.	.	4B-\	.	.	.
!LO:TX:t=P:problem=kreska pseudotaktowa	!	!	!	!	!	!	!
*	*	*Xlig	*	*	*	*Xlig	*
!	!	!	!	!	!	!LO:TX:t=P:problem=kreska pseudotaktowa	!
2A\	.	.	.	1c\	.	2e\	-us
=21-	=21-	=21-	=21-	=21-	=21-	=21-	=21-
2F\	.	1d	.	.	.	2a\	Sab-
!	!	!	!	!LO:N:acc=#	!	!	!
!	!	!	!	!LO:TX:t=P:problem=# above	!	!	!
!	!	!	!	!LO:TX:t=P:problem=kreska pseudotaktowa	!	!	!
2G\	.	.	.	2Bn\	-ba-	2g\	.
*	*	*	*	*custos:c	*	*	*
!LO:TX:t=P:problem=kreska pseudotaktowa	!	!LO:TX:t=P:problem=kreska pseudotaktowa	!	!	!	!LO:TX:t=P:problem=kreska pseudotaktowa	!
1C	-ctus	1c	-us	2c\	-oth	1e	.
*	*	*	*	*xywh-#94:1118,3726,6034,899	*	*	*
!	!	!	!	!LO:LB:g=original	!	!	!
.	.	.	.	2.c\	Do-	.	.
=22-	=22-	=22-	=22-	=22-	=22-	=22-	=22-
*	*	*lig	*	*	*	*	*
2.F\	Do-	1A	Sab-	.	.	2c/	.
.	.	.	.	4c\	-mi-	.	.
.	.	.	.	1A	-nus	1f	.
4F\	-mi-	.	.	.	.	.	.
!LO:TX:t=P:problem=kreska pseudotaktowa	!	!	!	!	!	!	!
1D	-n(us)	1F	.	.	.	.	.
.	.	.	.	2.F/	De-	1d\	.
*	*	*Xlig	*	*	*	*	*
=23-	=23-	=23-	=23-	=23-	=23-	=23-	=23-
*	*	*lig	*	*	*	*	*
2BB-/	De-	1B-	.	.	.	.	.
.	.	.	.	4D/	.	.	.
!	!	!	!	!LO:TX:t=P:problem=kreska pseudotaktowa	!	!	!
2GG/	-(us)	.	.	2d\	-us	1g	.
2AA/	Sab-	1A	.	(1c	Sab-	.	.
!LO:TX:t=P:problem=kreska pseudotaktowa	!	!	!	!	!	!LO:TX:t=P:problem=kreska pseudotaktowa	!
2FF/	.	.	.	.	.	2f\	.
*	*	*Xlig	*	*	*	*	*
=24-	=24-	=24-	=24-	=24-	=24-	=24-	=24-
*	*	*lig	*	*	*	*lig	*
!	!	!	!	!LO:N:vis=0	!	!	!
2.C/	.	1G	.	1c	.	1e	.
4BB-/	.	.	.	.	.	.	.
4AA/	.	1A	.	1c	.	1.f	.
4GG/	.	.	.	.	.	.	.
!LO:TX:t=P:problem=kreska pseudotaktowa	!	!	!	!	!	!	!
2FF/	.	.	.	.	.	.	.
*	*	*Xlig	*	*	*	*Xlig	*
=25-	=25-	=25-	=25-	=25-	=25-	=25-	=25-
2.C/	.	2.G/	.	1c)	-ba-	.	.
.	.	.	.	.	.	2e\	-ba-
4C/	-ba-	4G/	-ba-	.	.	.	.
!	!	!	!	!LO:N:vis=0	!	!	!
1FF;	-oth	1A;<	-oth.	1c;<	-oth	1f;<	-oth.
!LO:LB:g=original	!	!LO:LB:g=original	!	!	!	!LO:LB:g=original	!
=26||	=26||	=26||	=26||	=26||	=26||	=26||	=26||
*xywh-#259:7149,2287,6189,1004	*	*xywh-#171:7185,3013,5121,891	*	*	*	*xywh-#7:943,3781,6056,949	*
*M2/1	*	*M2/1	*	*M2/1	*	*M2/1	*
*met(c|)	*	*met(c|)	*	*met(c|)	*	*met(c|)	*
1FF	Ple-	1A	Ple-	1c	Ple-	1f	Ple-
!LO:TX:t=P:problem=kreska pseudotaktowa	!	!LO:TX:t=P:problem=kreska pseudotaktowa	!	!	!	!LO:TX:t=P:problem=kreska pseudotaktowa	!
1C	-ni	1G	-ni	1c	-ni	1e	-ni
=27-	=27-	=27-	=27-	=27-	=27-	=27-	=27-
!LO:TX:t=P:problem=kreska pseudotaktowa	!	!LO:TX:t=P:problem=kreska pseudotaktowa	!	!LO:TX:t=P:problem=kreska pseudotaktowa	!	!LO:TX:t=P:problem=kreska pseudotaktowa	!
1D	sunt	1F	ſunt	1A	ſunt	1d	ſunt
*	*	*lig	*	*	*	*lig	*
2.C/	cae-	1G	cae-	0c	cae-	1e	cae-
4BB-/	.	.	.	.	.	.	.
=28-	=28-	=28-	=28-	=28-	=28-	=28-	=28-
4AA/	.	1A	.	.	.	1f	.
4GG/	.	.	.	.	.	.	.
!LO:TX:t=P:problem=kreska pseudotaktowa	!	!	!	!	!	!	!
2AA/	.	.	.	.	.	.	.
*	*	*Xlig	*	*	*	*Xlig	*
!LO:TX:t=P:problem=cezura na 1. linii	!	!LO:TX:t=P:problem=kreska pseudotaktowa	!	!LO:TX:t=P:problem=kreska pseudotaktowa	!	!	!
2FF,/	-li	1A	-li	1c	-li	2f\	-li
!	!	!	!	!	!	!LO:TX:t=P:problem=kreska pseudotaktowa	!
2F\	et	.	.	.	.	2a\	et
=29-	=29-	=29-	=29-	=29-	=29-	=29-	=29-
2E\	ter-	1c	et	2r	.	4g\	ter-
.	.	.	.	.	.	4f\	.
!LO:TX:t=P:problem=kreska pseudotaktowa	!	!	!	!	!	!	!
2C/	.	.	.	2c\	et	4e\	.
!	!	!	!	!	!	!LO:TX:t=P:problem=kreska pseudotaktowa	!
.	.	.	.	.	.	4f\	.
*	*	*lig	*	*	*	*	*
!	!	!	!	!LO:N:acc=#	!	!	!
2G\	.	1d	ter-	4Bn\	ter-	1g	.
.	.	.	.	4c\	.	.	.
2GG/	.	.	.	4d\	.	.	.
!	!	!	!	!LO:TX:t=P:problem=kreska pseudotaktowa	!	!	!
.	.	.	.	4B\	.	.	.
=30-	=30-	=30-	=30-	=30-	=30-	=30-	=30-
!	!	!	!	!	!	!LO:TX:t=P:problem=kreska pseudotaktowa	!
4C/	.	1e	.	1c	.	1g	-ra
4D/	.	.	.	.	.	.	.
4E\	.	.	.	.	.	.	.
!LO:TX:t=P:problem=kreska pseudotaktowa	!	!	!	!	!	!	!
4F\	.	.	.	.	.	.	.
*	*	*Xlig	*	*	*	*	*
*	*	*lig	*	*	*	*	*
4G\	.	1d	.	4B-X\	.	2g\	et
4A\	.	.	.	4c\	.	.	.
2.B-\	.	.	.	1d\	.	1f\	ter-
=31-	=31-	=31-	=31-	=31-	=31-	=31-	=31-
.	.	1B-	.	.	.	.	.
4A\	.	.	.	.	.	.	.
!LO:TX:t=P:problem=kreska pseudotaktowa	!	!	!	!	!	!LO:TX:t=P:problem=kreska pseudotaktowa	!
2G\	.	.	.	4c\	.	2e\	.
!	!	!	!	!LO:TX:t=P:problem=kreska pseudotaktowa	!	!	!
.	.	.	.	4B-\	.	.	.
*	*	*Xlig	*	*	*	*	*
!LO:TX:t=P:problem=kreska pseudotaktowa	!	!LO:TX:t=P:problem=kreska pseudotaktowa	!	!LO:TX:t=P:problem=cezura na 2. linii	!	!	!
1F	-ra	1c	-ra	2A,\	-ra	1f	-ra
.	.	.	.	2.c\	glo-	.	.
=32-	=32-	=32-	=32-	=32-	=32-	=32-	=32-
2.F\	glo-	1.f	glo-	.	.	2.a\	glo-
.	.	.	.	4c\	-ri-	.	.
*	*	*	*	*custos:B	*	*	*
.	.	.	.	2A\	-a	.	.
!	!	!	!	!	!	!LO:TX:t=P:problem=kreska pseudotaktowa	!
4F\	-ri-	.	.	.	.	4a\	-ri-
*	*	*	*	*xywh-#94:7249,512,6094,966	*	*	*
!	!	!	!	!LO:PB:g=original	!	!	!
2D/	-a	.	.	2B-\	tu-	2f\	-a
!	!	!	!	!LO:TX:t=P:problem=kreska pseudotaktowa	!	!	!
2.E\	glo-	2c\	.	2G/	-a	1g\	tu-
=33-	=33-	=33-	=33-	=33-	=33-	=33-	=33-
*	*	*lig	*	*	*	*	*
.	.	1c	-ri-	2.c\	glo-	.	.
*custos:F	*	*	*	*	*	*	*
4E\	-ri-	.	.	.	.	.	.
*xywh-#259:7155,2987,6189,891	*	*	*	*	*	*	*
!LO:LB:g=original	!	!	!	!	!	!LO:TX:t=P:problem=kreska pseudotaktowa	!
2.F\	-a	.	.	.	.	2.a\	.
.	.	.	.	8d\L	.	.	.
.	.	.	.	8e\J	.	.	.
.	.	1A	.	2.f\	.	.	.
4E\	.	.	.	.	.	4g\	.
2.D/	.	.	.	.	.	2.f\	.
!	!	!	!	!LO:TX:t=P:problem=kreska pseudotaktowa	!	!	!
.	.	.	.	4e\	.	.	.
*	*	*Xlig	*	*	*	*	*
=34-	=34-	=34-	=34-	=34-	=34-	=34-	=34-
!	!	!LO:TX:t=P:problem=kreska pseudotaktowa	!	!	!	!	!
.	.	1F	-a	2.d\	.	.	.
4C/	.	.	.	.	.	4e\	.
4BB-/	.	.	.	.	.	4d\	.
!LO:TX:t=P:problem=kreska pseudotaktowa	!	!	!	!LO:TX:t=P:problem=kreska pseudotaktowa	!	!	!
4AA/	.	.	.	4c\	.	8e\L	.
!	!	!	!	!	!	!LO:TX:t=P:problem=kreska pseudotaktowa	!
.	.	.	.	.	.	8f\J	.
*	*	*lig	*	*	*	*	*
1.GG	.	1B-	tu-	4B-\	.	1g	.
.	.	.	.	4G/	.	.	.
.	.	.	.	1d\	.	.	.
=35-	=35-	=35-	=35-	=35-	=35-	=35-	=35-
!	!	!	!	!	!	!LO:TX:t=P:problem=kreska pseudotaktowa	!
.	.	1A	.	.	.	1a	.
!LO:TX:t=P:problem=kreska pseudotaktowa	!	!	!	!LO:TX:t=P:problem=kreska pseudotaktowa	!	!	!
2FF#X/	.	.	.	2d\	-ri-	.	.
*	*	*Xlig	*	*	*	*	*
*	*	*lig	*	*	*	*	*
4GG/	.	1G	.	1B-	-a	2d\	.
4AA/	.	.	.	.	.	.	.
4BB-/	.	.	.	.	.	1g\	.
!LO:TX:t=P:problem=kreska pseudotaktowa	!	!	!	!	!	!	!
4GG/	.	.	.	.	.	.	.
=36-	=36-	=36-	=36-	=36-	=36-	=36-	=36-
4D\	.	1A	.	2.A\	tu-	.	.
4E\	.	.	.	.	.	.	.
!LO:TX:t=P:problem=kreska pseudotaktowa	!	!	!	!	!	!	!
2F\	.	.	.	.	.	1f	.
!	!	!	!	!LO:TX:t=P:problem=kreska pseudotaktowa	!	!	!
.	.	.	.	4B-\	.	.	.
*	*	*Xlig	*	*	*	*	*
*	*	*lig	*	*	*	*	*
1C	tu-	1G	.	4c\	.	.	.
.	.	.	.	4d\	.	.	.
.	.	.	.	2c\	.	2e\	.
=37-	=37-	=37-	=37-	=37-	=37-	=37-	=37-
1ryy	.	1F	.	1ryy	.	1ryy	.
*	*	*Xlig	*	*	*	*	*
=38-	=38-	=38-	=38-	=38-	=38-	=38-	=38-
1FFny;	-a	0F;	-a	1c;<	-a	1f;<	-a
1ryy	.	.	.	1ryy	.	1ryy	.
!	!	!LO:LB:g=original	!	!	!	!LO:LB:g=original	!
=39||	=39||	=39||	=39||	=39||	=39||	=39||	=39||
*	*	*xywh-#171:7331,3565,6053,957	*	*	*	*xywh-#7:7201,512,5295,876	*
*M2/1	*	*M2/1	*	*M2/1	*	*M2/1	*
*met(c|)	*	*met(c|)	*	*met(c|)	*	*met(c|)	*
1F	O-	1A	O	1c	O-	1f	O-
=40-	=40-	=40-	=40-	=40-	=40-	=40-	=40-
*	*	*lig	*	*	*	*	*
2E\	ſan-	1c	san-	1e	-ſan-	0g	-ſan-
!LO:TX:t=P:problem=kreska pseudotaktowa	!	!	!	!	!	!	!
2C/	.	.	.	.	.	.	.
!	!	!	!	!LO:N:acc=#	!	!	!
!	!	!	!	!LO:TX:t=P:problem=kreska pseudotaktowa	!	!	!
2.G\	.	1d	.	1Bn	-na	.	.
4F\	.	.	.	.	.	.	.
*	*	*Xlig	*	*	*	*	*
=41-	=41-	=41-	=41-	=41-	=41-	=41-	=41-
*	*	*lig	*	*	*	*	*
!	!	!	!	!	!	!LO:TX:t=P:problem=kreska pseudotaktowa	!
4E\	.	1e	.	4c\	in	1g	-na
4D/	.	.	.	4d\	.	.	.
4C/	.	.	.	2.e\	.	.	.
!LO:TX:t=P:problem=kreska pseudotaktowa	!	!	!	!	!	!	!
4BB-/	.	.	.	.	.	.	.
2AA/	.	1c	.	.	.	0a	in
.	.	.	.	4d\	.	.	.
4A\	.	.	.	1c\	ex-	.	.
*custos:F	*	*	*	*	*	*	*
!LO:TX:t=P:problem=kreska pseudotaktowa	!	!	!	!	!	!	!
4G\	.	.	.	.	.	.	.
*	*	*Xlig	*	*	*	*	*
!LO:LB:g=original	!	!	!	!	!	!	!
=42-	=42-	=42-	=42-	=42-	=42-	=42-	=42-
*xywh-#259:7262,3537,5262,1088	*	*	*	*	*	*	*
*lig	*	*lig	*	*	*	*	*
1F	.	1d	.	.	.	.	.
!	!	!	!	!LO:TX:t=P:problem=# above	!	!	!
!	!	!	!	!LO:N:acc=#	!	!	!
.	.	.	.	4Bn\	.	.	.
!	!	!	!	!LO:TX:t=P:problem=kreska pseudotaktowa	!	!	!
.	.	.	.	4A\	.	.	.
*	*	*	*	*custos:e	*	*	*
!	!	!LO:N:acc=#	!	!	!	!	!
!	!	!LO:TX:t=P:problem=# above	!	!LO:TX:t=P:problem=kreska pseudotaktowa	!	!	!
1G	.	1Bn	.	1d	-cel-	1g	ex-
*Xlig	*	*Xlig	*	*	*	*	*
!	!	!	!	!LO:LB:g=original	!	!	!
=43-	=43-	=43-	=43-	=43-	=43-	=43-	=43-
*	*	*	*	*xywh-#94:7297,1225,3219,906	*	*	*
!LO:TX:t=P:problem=kreska pseudotaktowa	!	!LO:TX:t=P:problem=kreska pseudotaktowa	!	!LO:TX:a:t=P:problem=cezura na 5. linii	!	!	!
1C	-na	1c	-na	2e,\	-ſis	2g\	-cel-
!	!	!	!	!LO:TX:t=P:problem=kreska pseudotaktowa	!	!	!
.	.	.	.	2c\	O	1a	.
1D	O	1f	in	2A/	ſan-	.	.
!	!	!	!	!	!	!LO:TX:t=P:problem=kreska pseudotaktowa	!
.	.	.	.	2F/	.	2.d\	.
=44-	=44-	=44-	=44-	=44-	=44-	=44-	=44-
*	*	*lig	*	*	*	*	*
!	!	!	!	!LO:TX:t=P:problem=cezura na 2. linii	!	!	!
!	!	!	!	!LO:TX:t=P:problem=kreska pseudotaktowa	!	!	!
4BB-/	ſan-	1f	ex-	1B-y,	-na	.	.
4C/	.	.	.	.	.	4e\	.
4D/	.	.	.	.	.	1f	.
!LO:TX:t=P:problem=kreska pseudotaktowa	!	!	!	!	!	!	!
4E\	.	.	.	.	.	.	.
2F\	.	1c	.	2A/	in	.	.
1C/	-na	.	.	4G/	ex-	1e\	.
!	!	!	!	!LO:TX:t=P:problem=kreska pseudotaktowa	!	!	!
.	.	.	.	4F/	.	.	.
*	*	*Xlig	*	*	*	*	*
=45-	=45-	=45-	=45-	=45-	=45-	=45-	=45-
*	*	*lig	*	*	*	*	*
.	.	1c	-cel-	2G/	.	.	.
!	!	!	!	!	!	!LO:TX:t=P:problem=kreska pseudotaktowa	!
1AA	in	.	.	4A/	.	2c/	-ſis
.	.	.	.	4B-\	.	.	.
.	.	1A	.	2c\	.	1.f	in
!LO:TX:t=P:problem=kreska pseudotaktowa	!	!	!	!LO:TX:t=P:problem=kreska pseudotaktowa	!	!	!
2FF/	ex-	.	.	2A/	.	.	.
*	*	*Xlig	*	*	*	*	*
=46-	=46-	=46-	=46-	=46-	=46-	=46-	=46-
2.BB-/	-cel-	1F	.	0d	.	.	.
.	.	.	.	.	.	1d	ex-
4AA/	.	.	.	.	.	.	.
*lig	*	*	*	*	*	*	*
1GG	.	1B-y	.	.	.	.	.
.	.	.	.	.	.	1g\	cel-
=47-	=47-	=47-	=47-	=47-	=47-	=47-	=47-
*col	*	*	*	*	*	*	*
2.AA/	.	1A	.	0.c	-cel-	.	.
.	.	.	.	.	.	1f	.
*Xlig	*	*	*	*	*	*	*
!LO:TX:t=P:problem=kreska pseudotaktowa	!	!	!	!	!	!	!
4BB-/	.	.	.	.	.	.	.
*Xcol	*	*	*	*	*	*	*
2.C/	.	1G	.	.	.	.	.
.	.	.	.	.	.	4e\	.
!	!	!	!	!	!	!LO:TX:t=P:problem=kreska pseudotaktowa	!
4BB-/	.	.	.	.	.	4d\	.
=48-	=48-	=48-	=48-	=48-	=48-	=48-	=48-
*	*	*lig	*	*	*	*	*
4AA/	.	1A	.	.	.	2c/	.
4GG/	.	.	.	.	.	.	.
4AA/	.	.	.	.	.	1f	.
!LO:TX:t=P:problem=kreska pseudotaktowa	!	!	!	!	!	!	!
4FF/	.	.	.	.	.	.	.
1C	.	1G	.	1ryy	.	.	.
.	.	.	.	.	.	2e\	.
*	*	*Xlig	*	*	*	*	*
=49-	=49-	=49-	=49-	=49-	=49-	=49-	=49-
!	!	!	!	!	!	!LO:N:vis=1	!
0FF;;	-ſis	0F;	-ſis.	0c;<	-ſis.	0f;	-ſis.
==	==	==	==	==	==	==	==
*-	*-	*-	*-	*-	*-	*-	*-
!!!system-decoration: [s1,s2,s3,s4]
!!!RDF**kern: < = below
!!!ENC: Marta Lawrence
!!!END: 2021-03-06
!!!ENC: Kamil Watkowski
!!!END: 2021-02-20
!!!ENC-iiif: Mateusz Mrugas
!!!END-iiif: 2022-09-05
